X: 3863
T: Black Rock
R: polka
M: 2/4
K: Dmajor
|:B/A/|"Em"GE BE|GB BA/G/|"D"FD AD|FA AB/A/|
"Em"GE BE|GB Bc|"D"dB AF|"Em"E3:|
|:B|"G"d>B GB|d/e/d/B/ GB|"D"A2 A>B|AG ED|
"G"d>B GB|d/e/d/B/ GB|"D"A>B AG|"Em"E3:|

